src/oreo_black_cursors/pirate.svg

<svg xmlns="http://www.w3.org/2000/svg" id="svg2" width="32" height="32" version="1.1">
 <defs id="defs6">
  <filter id="filter1153" style="color-interpolation-filters:sRGB" width="1.226" height="1.167" x="-.11" y="-.08">
   <feGaussianBlur id="feGaussianBlur1155" stdDeviation=".94"/>
  </filter>
  <filter id="filter891" style="color-interpolation-filters:sRGB" width="1.192" height="1.192" x="-.1" y="-.1">
   <feGaussianBlur id="feGaussianBlur893" stdDeviation=".96"/>
  </filter>
 </defs>
 <circle id="circle849" style="opacity:0.3;fill:#000000;fill-opacity:1;stroke:none;stroke-width:4.83710194;stroke-linecap:round;stroke-linejoin:round;stroke-miterlimit:4;stroke-dasharray:none;stroke-opacity:1;filter:url(#filter891)" cx="16" cy="17.5" r="12"/>
 <circle id="path817" style="opacity:1;fill:#f44336;fill-opacity:1;stroke:none;stroke-width:4.83710194;stroke-linecap:round;stroke-linejoin:round;stroke-miterlimit:4;stroke-dasharray:none;stroke-opacity:1" cx="16" cy="16" r="12"/>
 <path id="path5475" style="fill:#ffffff;fill-opacity:1;stroke:none;stroke-width:0.76622319" d="M 16 8 C 15.764611 8.00169 15.529652 8.0180071 15.296875 8.0488281 C 15.278955 8.0512581 15.260028 8.0520675 15.242188 8.0546875 C 12.803382 8.3837637 11.001943 10.229158 11 12.400391 C 11.000143 13.551261 11.512683 14.656273 12.427734 15.478516 L 12.427734 16.462891 L 13.337891 16.884766 L 12.595703 18.126953 L 14.054688 18.974609 L 14.771484 17.533203 L 15 17.533203 L 15 19 L 17 19 L 17 17.533203 L 17.228516 17.533203 L 17.945312 18.974609 L 19.404297 18.126953 L 18.662109 16.884766 L 19.572266 16.462891 L 19.572266 15.474609 C 20.486242 14.653333 20.998697 13.549908 21 12.400391 C 21.000246 9.9701852 18.761598 7.9999999 16 8 z M 14 12 C 14.552287 12 15 12.447735 15 13 C 15 13.552267 14.552287 14 14 14 C 13.447713 14 13 13.552267 13 13 C 13 12.447735 13.447713 12 14 12 z M 18 12 C 18.552287 12 19 12.447735 19 13 C 19 13.552267 18.552287 14 18 14 C 17.447713 14 17 13.552267 17 13 C 17 12.447735 17.447713 12 18 12 z M 11.148438 18.001953 C 11.083497 17.997367 11.015393 18.005214 10.941406 18.029297 C 10.856856 18.056627 10.784717 18.128058 10.6875 18.203125 C 9.9097909 18.803659 9.7980808 19.357067 10.390625 19.427734 C 10.845368 19.482404 12.900959 20.544639 14.498047 20.951172 C 13.163823 21.311772 11.013082 22.474609 10.367188 22.474609 C 9.4413432 22.474609 10.510605 23.92738 10.917969 23.998047 C 11.325349 24.068377 13.7682 21.987363 15.990234 21.351562 L 16.013672 21.351562 C 18.235705 21.987362 20.657073 24.06858 21.064453 23.998047 C 21.471817 23.927647 22.562564 22.474609 21.636719 22.474609 C 20.993051 22.474609 18.836564 21.310705 17.505859 20.951172 C 19.102947 20.544639 21.16049 19.481934 21.615234 19.427734 C 22.207778 19.357404 22.094122 18.803659 21.316406 18.203125 C 20.538698 17.602658 20.167969 18.677734 20.167969 18.677734 C 20.167969 18.677734 17.596661 20.113353 16.152344 20.501953 C 16.109514 20.513283 16.035122 20.538111 15.990234 20.550781 C 15.951224 20.540111 15.890926 20.511953 15.853516 20.501953 C 14.409199 20.113353 11.835937 18.677734 11.835938 18.677734 C 11.835938 18.677734 11.603019 18.034059 11.148438 18.001953 z"/>
</svg>

<svg xmlns="http://www.w3.org/2000/svg" viewBox="0 0 32 32"><defs><filter id="a" width="1.192" height="1.192" x="-.1" y="-.1" color-interpolation-filters="sRGB"><feGaussianBlur stdDeviation=".96"/></filter></defs><circle cx="16" cy="17.5" r="12" opacity=".3" filter="url(#a)"/><circle cx="16" cy="16" r="12" fill="#f44336"/><path d="M16 8a5.6682 5.6682 0 00-.7031.0488c-.018.0025-.0369.0033-.0547.0059-2.4388.329-4.2403 2.1745-4.2422 4.3457.0001 1.1509.5127 2.2559 1.4277 3.0781v.9844l.9102.4219-.7422 1.2422 1.459.8476.7168-1.4414H15V19h2v-1.4668h.2285l.7168 1.4414 1.459-.8476-.7422-1.2422.9102-.422v-.9882c.914-.8213 1.4264-1.9247 1.4277-3.0742C21.0002 9.9702 18.7616 8 16 8zm-2 4c.5523 0 1 .4477 1 1s-.4477 1-1 1-1-.4477-1-1 .4477-1 1-1zm4 0c.5523 0 1 .4477 1 1s-.4477 1-1 1-1-.4477-1-1 .4477-1 1-1zm-6.8516 6.002a.5377.5377 0 00-.207.0273c-.0845.0273-.1567.0988-.2539.1738-.7777.6006-.8894 1.154-.2969 1.2246.4548.0547 2.5104 1.117 4.1074 1.5235-1.3342.3606-3.485 1.5234-4.1308 1.5234-.9259 0 .1434 1.4528.5508 1.5234.4073.0704 2.8502-2.0106 5.0722-2.6464h.0235c2.222.6358 4.6434 2.717 5.0508 2.6464.4073-.0704 1.498-1.5234.5722-1.5234-.6436 0-2.8001-1.1639-4.1308-1.5234 1.597-.4066 3.6546-1.4693 4.1093-1.5235.5926-.0703.479-.624-.2988-1.2246-.7777-.6004-1.1484.4746-1.1484.4746s-2.5713 1.4357-4.0157 1.8243c-.0428.0113-.1172.0361-.162.0488-.039-.0107-.0994-.0388-.1368-.0488-1.4443-.3886-4.0176-1.8243-4.0176-1.8243s-.2329-.6436-.6875-.6757z" fill="#fff"/></svg>
